img/music/reel-teeth.svg

<svg viewBox="0 0 40 40" xmlns="http://www.w3.org/2000/svg"><path d="m1255.998 30181c-.25653 0-.51282-.0049-.76817-.0146l-.49967-.0251-.26896-.0186-.29411-.0246-.26427-.0257-.3943-.0451-.55432-.0767c-4.91694-.7513-9.24468-3.2932-12.29695-6.9392l-.28239-.345c-.12108-.1514-.24-.3045-.35672-.4593l-.31327-.4273-.04968-.07c-.47659-.6744-.91249-1.3797-1.30412-2.1122l-.3162-.6169-.03057-.0626c-.14526-.2986-.2833-.6014-.41391-.9081l-.21982-.538c-.88481-2.2591-1.37057-4.7183-1.37057-7.291s.48576-5.0319 1.37057-7.291l.02953-.075c.1231-.3105.25376-.6173.39175-.9201l.27378-.576c.36933-.746.78378-1.4655 1.23981-2.1552l.39945-.5815.39012-.5286.13397-.1734.14588-.1846c2.97188-3.7144 7.24068-6.346 12.12012-7.2085l.5051-.0826c.21213-.0319.42535-.0605.63961-.0857l.26311-.0292.29032-.0281.26815-.0222.38591-.0256c.38112-.0217.76469-.0327 1.15082-.0327.2592 0 .51637.0049.77202.0146l.49982.0251.26896.0186.29411.0246.26427.0257.3943.0451.55432.0767c4.91694.7513 9.24468 3.2932 12.29695 6.9392l.28239.345c.12108.1514.24.3045.35672.4593l.31327.4273.04968.07c.47659.6744.91249 1.3797 1.30412 2.1122l.3162.6169.03057.0626c.14526.2986.2833.6014.41391.9081l.21982.538c.88481 2.2591 1.37057 4.7183 1.37057 7.291s-.48576 5.0319-1.37057 7.291l-.02953.075c-.1231.3105-.25376.6173-.39175.9201l-.27378.576c-.36933.746-.78378 1.4655-1.23981 2.1552l-.39945.5815-.3694.5014-.30057.3852c-2.97188 3.7144-7.24068 6.346-12.12012 7.2085l-.5051.0826c-.21213.0319-.42535.0605-.63961.0857l-.26311.0292-.29032.0281-.26815.0222-.38591.0256c-.25452.0145-.51013.0242-.76687.029zm3.00147-36.7362.00053 5.7362h-6l.00053-5.7362c-3.98333.7091-7.48664 2.8054-9.99252 5.7717l4.96571 2.8664-3 5.1962-4.96931-2.8686c-.65007 1.8017-1.00441 3.7447-1.00441 5.7705s.35434 3.9688 1.00441 5.7705l4.96931-2.8686 3 5.1962-4.96571 2.8664c2.50588 2.9663 6.00919 5.0626 9.99252 5.7717l-.00053-5.7362h6l-.00053 5.7362c3.98333-.7091 7.48664-2.8054 9.99252-5.7717l-4.96571-2.8664 3-5.1962 4.96931 2.8686c.65007-1.8017 1.00441-3.7447 1.00441-5.7705s-.35434-3.9688-1.00441-5.7705l-4.96931 2.8686-3-5.1962 4.96571-2.8664c-2.50588-2.9663-6.00919-5.0626-9.99252-5.7717z" fill="#979797" fill-rule="evenodd" transform="translate(-1236 -30141)"/></svg>

<?xml version="1.0" encoding="UTF-8"?>
<svg viewBox="0 0 40 40" version="1.1" xmlns="http://www.w3.org/2000/svg" xmlns:xlink="http://www.w3.org/1999/xlink">
    <title>Shape</title>
    <g id="Page-1" stroke="none" stroke-width="1" fill="none" fill-rule="evenodd">
        <g id="2024-copy-14" transform="translate(-1236, -30141)" fill="#979797">
            <path d="M1255.998,30181 C1255.74147,30181 1255.48518,30180.9951 1255.22983,30180.9854 L1254.73016,30180.9603 L1254.4612,30180.9417 L1254.16709,30180.9171 L1253.90282,30180.8914 L1253.50852,30180.8463 L1252.9542,30180.7696 C1248.03726,30180.0183 1243.70952,30177.4764 1240.65725,30173.8304 L1240.37486,30173.4854 C1240.25378,30173.334 1240.13486,30173.1809 1240.01814,30173.0261 L1239.70487,30172.5988 L1239.65519,30172.5288 C1239.1786,30171.8544 1238.7427,30171.1491 1238.35107,30170.4166 L1238.03487,30169.7997 L1238.0043,30169.7371 C1237.85904,30169.4385 1237.721,30169.1357 1237.59039,30168.829 L1237.37057,30168.291 C1236.48576,30166.0319 1236,30163.5727 1236,30161 C1236,30158.4273 1236.48576,30155.9681 1237.37057,30153.709 L1237.4001,30153.634 C1237.5232,30153.3235 1237.65386,30153.0167 1237.79185,30152.7139 L1238.06563,30152.1379 C1238.43496,30151.3919 1238.84941,30150.6724 1239.30544,30149.9827 L1239.70489,30149.4012 L1240.09501,30148.8726 L1240.22898,30148.6992 L1240.37486,30148.5146 C1243.34674,30144.8002 1247.61554,30142.1686 1252.49498,30141.3061 L1253.00008,30141.2235 C1253.21221,30141.1916 1253.42543,30141.163 1253.63969,30141.1378 L1253.9028,30141.1086 L1254.19312,30141.0805 L1254.46127,30141.0583 L1254.84718,30141.0327 C1255.2283,30141.011 1255.61187,30141 1255.998,30141 C1256.2572,30141 1256.51437,30141.0049 1256.77002,30141.0146 L1257.26984,30141.0397 L1257.5388,30141.0583 L1257.83291,30141.0829 L1258.09718,30141.1086 L1258.49148,30141.1537 L1259.0458,30141.2304 C1263.96274,30141.9817 1268.29048,30144.5236 1271.34275,30148.1696 L1271.62514,30148.5146 C1271.74622,30148.666 1271.86514,30148.8191 1271.98186,30148.9739 L1272.29513,30149.4012 L1272.34481,30149.4712 C1272.8214,30150.1456 1273.2573,30150.8509 1273.64893,30151.5834 L1273.96513,30152.2003 L1273.9957,30152.2629 C1274.14096,30152.5615 1274.279,30152.8643 1274.40961,30153.171 L1274.62943,30153.709 C1275.51424,30155.9681 1276,30158.4273 1276,30161 C1276,30163.5727 1275.51424,30166.0319 1274.62943,30168.291 L1274.5999,30168.366 C1274.4768,30168.6765 1274.34614,30168.9833 1274.20815,30169.2861 L1273.93437,30169.8621 C1273.56504,30170.6081 1273.15059,30171.3276 1272.69456,30172.0173 L1272.29511,30172.5988 L1271.92571,30173.1002 L1271.62514,30173.4854 C1268.65326,30177.1998 1264.38446,30179.8314 1259.50502,30180.6939 L1258.99992,30180.7765 C1258.78779,30180.8084 1258.57457,30180.837 1258.36031,30180.8622 L1258.0972,30180.8914 L1257.80688,30180.9195 L1257.53873,30180.9417 L1257.15282,30180.9673 C1256.8983,30180.9818 1256.64269,30180.9915 1256.38595,30180.9963 L1255.998,30181 Z M1258.99947,30144.2638 L1259,30150 L1253,30150 L1253.00053,30144.2638 C1249.0172,30144.9729 1245.51389,30147.0692 1243.00801,30150.0355 L1247.97372,30152.9019 L1244.97372,30158.0981 L1240.00441,30155.2295 C1239.35434,30157.0312 1239,30158.9742 1239,30161 C1239,30163.0258 1239.35434,30164.9688 1240.00441,30166.7705 L1244.97372,30163.9019 L1247.97372,30169.0981 L1243.00801,30171.9645 C1245.51389,30174.9308 1249.0172,30177.0271 1253.00053,30177.7362 L1253,30172 L1259,30172 L1258.99947,30177.7362 C1262.9828,30177.0271 1266.48611,30174.9308 1268.99199,30171.9645 L1264.02628,30169.0981 L1267.02628,30163.9019 L1271.99559,30166.7705 C1272.64566,30164.9688 1273,30163.0258 1273,30161 C1273,30158.9742 1272.64566,30157.0312 1271.99559,30155.2295 L1267.02628,30158.0981 L1264.02628,30152.9019 L1268.99199,30150.0355 C1266.48611,30147.0692 1262.9828,30144.9729 1258.99947,30144.2638 Z" id="Shape"></path>
        </g>
    </g>
</svg>
